packages/dnb-ui-lib/assets/icons/hand_money.svg

<svg width="16" height="16" viewBox="0 0 16 16" fill="none" xmlns="http://www.w3.org/2000/svg">
<path d="M1.07617 6.60667C0.664094 6.56461 0.295943 6.86456 0.253878 7.27663C0.211812 7.6887 0.511762 8.05685 0.923834 8.09892L1.07617 6.60667ZM4.4455 7.70452L4.52311 6.95855L4.52166 6.9584L4.4455 7.70452ZM5.47631 8.13143L5.948 7.54832L5.94622 7.54688L5.47631 8.13143ZM8.20797 10.3411L7.73628 10.9242C7.74037 10.9275 7.74449 10.9308 7.74865 10.934L8.20797 10.3411ZM8.78265 11.4554L8.03369 11.4948C8.03405 11.5018 8.03452 11.5087 8.03508 11.5157L8.78265 11.4554ZM8.22859 12.4166L7.92254 11.7318L7.91691 11.7344L8.22859 12.4166ZM6.84987 12.2931L7.27573 11.6757C7.2706 11.6722 7.26543 11.6687 7.26022 11.6653L6.84987 12.2931ZM5.48979 10.5081C5.14307 10.2815 4.67829 10.3788 4.45166 10.7255C4.22503 11.0722 4.32239 11.537 4.66911 11.7637L5.48979 10.5081ZM8.65201 11.4451C8.2378 11.4451 7.90201 11.7809 7.90201 12.1951C7.90201 12.6093 8.2378 12.9451 8.65201 12.9451V11.4451ZM13.3498 12.1951V12.9452L13.3601 12.9451L13.3498 12.1951ZM15 13.5887L15.0865 14.3337C15.4647 14.2898 15.75 13.9695 15.75 13.5887H15ZM7.2781 14.4855L7.32681 15.2339C7.33944 15.2331 7.35205 15.2319 7.36462 15.2305L7.2781 14.4855ZM6.29523 14.3078L6.60651 13.6254L6.60625 13.6253L6.29523 14.3078ZM1.31102 11.2121C0.934105 11.0403 0.489304 11.2066 0.31753 11.5836C0.145757 11.9605 0.31206 12.4053 0.688977 12.577L1.31102 11.2121ZM7.50414 6.04178V5.29178V6.04178ZM7.50414 1.5V0.75V1.5ZM11.7215 8.96149V8.21149V8.96149ZM11.7215 4.41971V3.66971V4.41971ZM0.923834 8.09892L4.36933 8.45064L4.52166 6.9584L1.07617 6.60667L0.923834 8.09892ZM4.36789 8.45049C4.59715 8.47435 4.81857 8.56497 5.00641 8.71597L5.94622 7.54688C5.53704 7.21796 5.04418 7.01276 4.52311 6.95855L4.36789 8.45049ZM5.00463 8.71453L7.73628 10.9242L8.67966 9.75802L5.948 7.54832L5.00463 8.71453ZM7.74865 10.934C7.91194 11.0605 8.02156 11.2642 8.03369 11.4948L9.53162 11.416C9.49726 10.7628 9.18574 10.1499 8.6673 9.74824L7.74865 10.934ZM8.03508 11.5157C8.0439 11.625 7.98303 11.7048 7.92255 11.7319L8.53462 13.1013C9.20224 12.8029 9.58779 12.1083 9.53022 11.395L8.03508 11.5157ZM7.91691 11.7344C7.70894 11.8294 7.46963 11.8095 7.27573 11.6757L6.42402 12.9104C7.0493 13.3418 7.8485 13.4148 8.54027 13.0988L7.91691 11.7344ZM7.26022 11.6653L5.48979 10.5081L4.66911 11.7637L6.43953 12.9209L7.26022 11.6653ZM8.65201 12.9451H13.3498V11.4451H8.65201V12.9451ZM13.3601 12.9451C13.5443 12.9425 13.8051 13.0004 13.9962 13.125C14.1563 13.2294 14.25 13.3606 14.25 13.5887H15.75C15.75 12.7715 15.3265 12.2017 14.8155 11.8685C14.3355 11.5556 13.7711 11.4393 13.3395 11.4452L13.3601 12.9451ZM15 13.5887C14.9135 12.8437 14.9135 12.8437 14.9135 12.8437C14.9134 12.8437 14.9134 12.8437 14.9134 12.8437C14.9133 12.8437 14.9132 12.8438 14.913 12.8438C14.9127 12.8438 14.9122 12.8439 14.9116 12.8439C14.9103 12.8441 14.9085 12.8443 14.9059 12.8446C14.9009 12.8452 14.8934 12.8461 14.8833 12.8472C14.8632 12.8496 14.833 12.8531 14.7928 12.8577C14.7124 12.8671 14.5917 12.8811 14.4309 12.8998C14.1091 12.9371 13.6265 12.9932 12.983 13.0679C11.696 13.2174 9.76555 13.4416 7.19158 13.7405L7.36462 15.2305C9.93858 14.9315 11.8691 14.7074 13.156 14.5579C13.7995 14.4832 14.2822 14.4271 14.6039 14.3898C14.7648 14.3711 14.8854 14.3571 14.9659 14.3477C15.0061 14.343 15.0362 14.3395 15.0564 14.3372C15.0664 14.336 15.0739 14.3352 15.079 14.3346C15.0815 14.3343 15.0834 14.3341 15.0846 14.3339C15.0853 14.3339 15.0857 14.3338 15.086 14.3338C15.0862 14.3337 15.0863 14.3337 15.0864 14.3337C15.0864 14.3337 15.0865 14.3337 15.0865 14.3337C15.0865 14.3337 15.0865 14.3337 15 13.5887ZM7.22939 13.7371C7.01062 13.7513 6.79462 13.7112 6.60651 13.6254L5.98395 14.9901C6.40237 15.181 6.86626 15.2639 7.32681 15.2339L7.22939 13.7371ZM6.60625 13.6253L1.31102 11.2121L0.688977 12.577L5.9842 14.9902L6.60625 13.6253ZM8.05179 3.77089C8.05179 4.29164 7.92958 4.72621 7.77053 5.00455C7.69167 5.14255 7.61589 5.22137 7.56303 5.26049C7.53784 5.27914 7.52078 5.2867 7.5128 5.28955C7.50879 5.29099 7.50645 5.29147 7.50558 5.29163C7.50475 5.29177 7.50439 5.29178 7.50414 5.29178V6.79178C8.24777 6.79178 8.77441 6.27111 9.0729 5.74875C9.38351 5.20519 9.55179 4.50432 9.55179 3.77089H8.05179ZM7.50414 5.29178C7.50388 5.29178 7.50352 5.29177 7.50269 5.29163C7.50182 5.29147 7.49948 5.29099 7.49547 5.28955C7.48749 5.2867 7.47043 5.27914 7.44524 5.26049C7.39238 5.22137 7.3166 5.14255 7.23774 5.00455C7.07869 4.72621 6.95648 4.29164 6.95648 3.77089H5.45648C5.45648 4.50432 5.62476 5.20519 5.93538 5.74875C6.23386 6.27111 6.7605 6.79178 7.50414 6.79178V5.29178ZM6.95648 3.77089C6.95648 3.25014 7.07869 2.81556 7.23774 2.53723C7.3166 2.39923 7.39238 2.32041 7.44524 2.28129C7.47043 2.26264 7.48749 2.25508 7.49547 2.25223C7.49948 2.25079 7.50182 2.25031 7.50269 2.25015C7.50352 2.25001 7.50388 2.25 7.50414 2.25V0.75C6.7605 0.75 6.23386 1.27067 5.93538 1.79302C5.62476 2.33659 5.45648 3.03746 5.45648 3.77089H6.95648ZM7.50414 2.25C7.50439 2.25 7.50475 2.25001 7.50558 2.25015C7.50645 2.25031 7.50879 2.25079 7.5128 2.25223C7.52078 2.25508 7.53784 2.26264 7.56303 2.28129C7.61589 2.32041 7.69167 2.39923 7.77053 2.53723C7.92958 2.81556 8.05179 3.25014 8.05179 3.77089H9.55179C9.55179 3.03746 9.38351 2.33659 9.0729 1.79302C8.77441 1.27067 8.24777 0.75 7.50414 0.75V2.25ZM12.2692 6.6906C12.2692 7.21136 12.1469 7.64593 11.9879 7.92426C11.909 8.06226 11.8333 8.14108 11.7804 8.18021C11.7552 8.19886 11.7381 8.20641 11.7302 8.20927C11.7262 8.2107 11.7238 8.21118 11.7229 8.21134C11.7221 8.21149 11.7218 8.21149 11.7215 8.21149V9.71149C12.4651 9.71149 12.9918 9.19082 13.2903 8.66847C13.6009 8.1249 13.7692 7.42403 13.7692 6.6906H12.2692ZM11.7215 8.21149C11.7212 8.21149 11.7209 8.21149 11.7201 8.21134C11.7192 8.21118 11.7168 8.2107 11.7128 8.20927C11.7049 8.20641 11.6878 8.19886 11.6626 8.18021C11.6097 8.14108 11.534 8.06226 11.4551 7.92426C11.2961 7.64593 11.1739 7.21136 11.1739 6.6906H9.67385C9.67385 7.42403 9.84213 8.1249 10.1527 8.66847C10.4512 9.19082 10.9779 9.71149 11.7215 9.71149V8.21149ZM11.1739 6.6906C11.1739 6.16985 11.2961 5.73528 11.4551 5.45695C11.534 5.31895 11.6097 5.24012 11.6626 5.201C11.6878 5.18235 11.7049 5.1748 11.7128 5.17194C11.7168 5.17051 11.7192 5.17002 11.7201 5.16987C11.7209 5.16972 11.7212 5.16971 11.7215 5.16971V3.66971C10.9779 3.66971 10.4512 4.19039 10.1527 4.71274C9.84213 5.25631 9.67385 5.95718 9.67385 6.6906H11.1739ZM11.7215 5.16971C11.7218 5.16971 11.7221 5.16972 11.7229 5.16987C11.7238 5.17002 11.7262 5.17051 11.7302 5.17194C11.7381 5.1748 11.7552 5.18235 11.7804 5.201C11.8333 5.24012 11.909 5.31895 11.9879 5.45695C12.1469 5.73528 12.2692 6.16985 12.2692 6.6906H13.7692C13.7692 5.95718 13.6009 5.25631 13.2903 4.71274C12.9918 4.19039 12.4651 3.66971 11.7215 3.66971V5.16971Z" fill="black"/>
</svg>

<svg width="16" height="16" viewBox="0 0 16 16" fill="none" xmlns="http://www.w3.org/2000/svg"><path d="M1.076 6.607a.75.75 0 00-.152 1.492l.152-1.492zm3.37 1.098l.077-.746h-.001l-.077.746zm1.03.426l.472-.583-.002-.001-.47.584zm2.732 2.21l-.472.583a.681.681 0 00.013.01l.459-.593zm.575 1.114l-.75.04.002.02.748-.06zm-.554.962l-.306-.685-.006.002.312.683zm-1.38-.124l.427-.617a.91.91 0 00-.016-.01l-.41.627zm-1.36-1.785a.75.75 0 10-.82 1.256l.82-1.256zm3.163.937a.75.75 0 000 1.5v-1.5zm4.698.75v.75h.01l-.01-.75zM15 13.59l.086.745a.75.75 0 00.664-.745H15zm-7.722.896l.049.749a.797.797 0 00.038-.004l-.087-.745zm-.983-.177l.312-.683-.312.683zm-4.984-3.096a.75.75 0 10-.622 1.365l.622-1.365zm6.193-5.17v-.75.75zm0-4.542V.75v.75zm4.218 7.461v-.75.75zm0-4.541v-.75.75zM.924 8.099l3.445.352.153-1.493-3.446-.351-.152 1.492zm3.444.351c.23.024.45.115.638.266l.94-1.17a2.72 2.72 0 00-1.423-.587L4.368 8.45zm.637.265l2.731 2.21.944-1.167-2.732-2.21-.943 1.167zm2.744 2.219a.76.76 0 01.285.56l1.498-.078a2.258 2.258 0 00-.865-1.668l-.918 1.186zm.286.582c.009.109-.052.189-.112.216l.612 1.37a1.714 1.714 0 00.995-1.707l-1.495.12zm-.118.218a.646.646 0 01-.641-.058l-.852 1.234a2.146 2.146 0 002.116.189l-.623-1.365zm-.657-.069l-1.77-1.157-.82 1.256 1.77 1.157.82-1.256zm1.392 1.28h4.698v-1.5H8.652v1.5zm4.708 0a1.23 1.23 0 01.636.18c.16.104.254.236.254.464h1.5c0-.818-.424-1.387-.934-1.72a2.725 2.725 0 00-1.477-.424l.021 1.5zm1.64.644l-.086-.745h-.008l-.023.003-.09.01-.362.043-1.448.168-5.791.673.173 1.49 5.791-.673 1.448-.168.362-.042c.04-.005.07-.009.09-.01l.023-.003.006-.001h.001L15 13.589zm-7.77.148a1.305 1.305 0 01-.623-.112l-.623 1.365a2.8 2.8 0 001.343.244l-.098-1.497zm-.624-.112l-5.295-2.413-.622 1.365 5.295 2.413.622-1.365zm1.446-9.854c0 .52-.122.955-.281 1.234a.83.83 0 01-.208.255.204.204 0 01-.059.032v1.5c.744 0 1.27-.52 1.569-1.043.31-.544.479-1.245.479-1.978h-1.5zm-.548 1.52h-.001l-.008-.001a.204.204 0 01-.05-.03.83.83 0 01-.207-.255c-.16-.279-.282-.713-.282-1.234h-1.5c0 .733.169 1.434.48 1.978.298.522.825 1.043 1.568 1.043v-1.5zm-.548-1.52c0-.52.123-.955.282-1.234a.83.83 0 01.207-.256.204.204 0 01.06-.031V.75c-.744 0-1.271.52-1.57 1.043-.31.544-.479 1.244-.479 1.978h1.5zm.548-1.521h.002l.007.002c.008.003.025.01.05.03a.83.83 0 01.208.255c.159.279.28.713.28 1.234h1.5c0-.734-.167-1.434-.478-1.978C8.774 1.271 8.248.75 7.504.75v1.5zm4.765 4.44c0 .521-.122.956-.281 1.234a.83.83 0 01-.208.256.206.206 0 01-.057.031h-.002v1.5c.744 0 1.27-.52 1.57-1.043.31-.543.478-1.244.478-1.977h-1.5zm-.547 1.521h-.002l-.007-.002a.206.206 0 01-.05-.029.83.83 0 01-.208-.256c-.159-.278-.281-.713-.281-1.233h-1.5c0 .733.168 1.434.479 1.977.298.523.825 1.043 1.569 1.043v-1.5zm-.548-1.52c0-.521.122-.956.281-1.234a.83.83 0 01.208-.256.206.206 0 01.059-.031v-1.5c-.744 0-1.27.52-1.57 1.043-.31.543-.478 1.244-.478 1.978h1.5zm.548-1.521l.008.002c.008.003.025.01.05.029a.83.83 0 01.208.256c.159.278.281.713.281 1.234h1.5c0-.734-.168-1.435-.479-1.978-.298-.523-.825-1.043-1.568-1.043v1.5z" fill="#000"/></svg>
